resources/haticons/SVG/speakerdeck.svg

<!-- Generated by IcoMoon.io -->
<svg version="1.1" xmlns="http://www.w3.org/2000/svg" width="24" height="24" viewBox="0 0 24 24">
<title>speakerdeck</title>
<path fill="#396" d="M11.2 13.598l0.020-3.196-2.67 1.61zM12.798 10.403l-0.015 3.19 2.667-1.608zM12.783 13.598v-0.004l-0.004 0.002zM23.997 4.59c0-0.878-0.715-1.59-1.597-1.59h-20.8c-0.883 0-1.6 0.713-1.6 1.59v14.82c0 0.878 0.715 1.59 1.6 1.59h20.8c0.883 0 1.6-0.713 1.6-1.59v-14.82zM17.563 14.13h-0.014c0 0.586-0.466 1.052-1.050 1.065l0.036-0.016h-9.070c-0.58-0.010-1.050-0.48-1.050-1.060h-0.005v-4.239h0.010c0-0.58 0.463-1.050 1.033-1.060h9.060c0.57 0.017 1.050 0.48 1.050 1.067z"></path>
</svg>

<svg xmlns="http://www.w3.org/2000/svg" width="24" height="24"><path fill="#396" d="M11.2 13.598l.02-3.196-2.67 1.61zm1.598-3.195l-.015 3.19 2.667-1.608zm-.015 3.195v-.004l-.004.002zM23.997 4.59c0-.878-.715-1.59-1.597-1.59H1.6C.717 3 0 3.713 0 4.59v14.82C0 20.288.715 21 1.6 21h20.8c.883 0 1.6-.713 1.6-1.59V4.59zm-6.434 9.54h-.014c0 .586-.466 1.052-1.05 1.065l.036-.016h-9.07c-.58-.01-1.05-.48-1.05-1.06H6.41V9.88h.01c0-.58.463-1.05 1.033-1.06h9.06c.57.017 1.05.48 1.05 1.067z"/></svg>
